X: 1
T: Julia Delaney's reel
O: trad. Ireland
R: reel
S: Fiddle Hell Online 2021-04-15 Andy & Dave Reiner
N: basic version for workshop "Teaching How To Make Irish Fiddle Tunes Come Alive"
Z: 2021 John Chambers <jc:trillian.mit.edu>
M: C|
L: 1/8
K: Dm
|: dcAG F2DF | E2CE FDDA | dcAG F2DF |[1,3 Add^c defe :|[2 Add^c d2A=c :|[4 Add^c d3e ||
|: f2de fagf | ecgc acge |[1,3 fede fagf | edcB Adde :|[2 fedf edcd | Add^c d3e :|[4 fedf edcd | Add^c d4 |]
